src/components/Icon/svg-icon/social/twitter-verified.svg

<svg xmlns="http://www.w3.org/2000/svg" width="24" height="24" viewBox="0 0 24 24">
  <path fill="#1CA1F2" fill-rule="evenodd" d="M15.7596559,10.4264791 C15.888071,10.2490691 16.0005996,10.0398842 16.0005996,9.83202317 C15.9833894,9.63872569 15.9198438,9.41365329 15.7437695,9.26934216 C15.5981442,9.0932561 15.3730869,9.02838229 15.1811263,9.02838229 C14.9719554,9.02838229 14.7310117,9.0932561 14.6025967,9.26934216 L10.7316114,13.126024 L9.3984779,11.7755896 C9.22240367,11.6312784 9.04500557,11.5346297 8.81994829,11.5346297 C8.594891,11.5346297 8.41881677,11.6312784 8.22553227,11.7755896 C8.09711723,11.9516756 7.98458859,12.1449731 8.00047499,12.354158 C8.00047499,12.563343 8.06534444,12.7884154 8.24141867,12.9327265 L10.1530817,14.8604055 C10.2338376,14.9398428 10.3145934,14.9888291 10.4271221,15.0364915 C10.5383269,15.0854779 10.6190827,15.1013653 10.7474978,15.1013653 C10.8282536,15.1013653 10.9566686,15.0854779 11.0533109,15.0364915 C11.1499531,14.9888291 11.2452715,14.9398428 11.310141,14.8604055 L11.3260274,14.8604055 C11.310141,14.8604055 11.310141,14.8604055 11.3260274,14.8604055 C11.310141,14.8604055 11.310141,14.8604055 11.3260274,14.8604055 L15.7437695,10.4264791 L15.7596559,10.4264791 Z M19.5975446,13.9283409 C19.3248281,14.3943732 18.9713558,14.7796442 18.5066787,15.0364915 C18.5225651,15.0682664 18.5384515,15.1013653 18.5384515,15.1331403 C18.5225651,15.1649152 18.5225651,15.1980141 18.5384515,15.229789 C18.5543379,15.2615639 18.5543379,15.2933388 18.5543379,15.3264377 C18.5384515,15.3582127 18.5384515,15.3899876 18.5543379,15.4217625 C18.5384515,16.2743897 18.216752,17.0290443 17.6872054,17.5745139 C17.156335,18.1213074 16.4493903,18.4748035 15.6312409,18.4748035 C15.4538428,18.4748035 15.2777686,18.4417046 15.1162569,18.4099297 C14.956069,18.3781547 14.7641084,18.3450559 14.6184831,18.281506 C14.361653,18.7952007 14.0240671,19.2135705 13.5752764,19.5180803 C13.1092754,19.8239139 12.578405,20 11.983989,20 C11.4226696,20 10.8759128,19.8239139 10.4416846,19.5180803 C9.99289391,19.2135705 9.59176239,18.7952007 9.3825915,18.281506 C9.20519341,18.3450559 9.06089197,18.3781547 8.88481774,18.4099297 C8.69153325,18.4417046 8.54723181,18.4748035 8.35394731,18.4748035 C7.56757068,18.4748035 6.81296683,18.1213074 6.2979828,17.5745139 C5.78432264,17.0290443 5.44673671,16.2743897 5.46262311,15.4217625 C5.44673671,15.3899876 5.44673671,15.3582127 5.46262311,15.3264377 L5.46262311,15.229789 C5.44673671,15.1980141 5.44673671,15.1649152 5.46262311,15.1331403 C5.4785095,15.1013653 5.4785095,15.0682664 5.46262311,15.0364915 C5.06149159,14.7796442 4.66036007,14.3943732 4.40220612,13.9283409 C4.14669991,13.4781961 3.98518821,12.948614 4.0010746,12.3700455 C3.98518821,11.7755896 4.17714884,11.2129086 4.45118918,10.7309888 C4.72390566,10.2490691 5.15813383,9.87968556 5.62413481,9.63872569 L5.55926535,9.38187836 C5.52749256,9.30111709 5.51160616,9.2057923 5.49571977,9.10914357 C5.4785095,9.02838229 5.4785095,8.93305751 5.46262311,8.83640877 C5.44673671,8.7556475 5.44673671,8.65899876 5.46262311,8.56235002 C5.44673671,7.72693422 5.78432264,6.97227969 6.2979828,6.40959868 C6.81296683,5.84824162 7.56757068,5.51063302 8.35394731,5.51063302 C8.54723181,5.51063302 8.69153325,5.52652048 8.88481774,5.55961936 C9.06089197,5.59139429 9.20519341,5.63905668 9.3825915,5.70393049 C9.59176239,5.20612329 9.99289391,4.77186595 10.4416846,4.46735623 C10.8759128,4.16152255 11.4226696,4 11.983989,4 C12.578405,4 13.1092754,4.16152255 13.5752764,4.46735623 C14.0240671,4.77186595 14.361653,5.20612329 14.6184831,5.70393049 C14.7641084,5.63905668 14.956069,5.59139429 15.1162569,5.55961936 C15.2777686,5.52652048 15.4538428,5.51063302 15.6312409,5.51063302 C16.4493903,5.51063302 17.156335,5.84824162 17.6872054,6.40959868 C18.216752,6.97227969 18.5384515,7.72693422 18.5543379,8.56235002 C18.5384515,8.65899876 18.5384515,8.7556475 18.5384515,8.83640877 L18.4907923,9.10914357 L18.4418093,9.38187836 C18.4259229,9.46263964 18.3941501,9.55928837 18.345167,9.63872569 C18.8588272,9.87968556 19.2453962,10.2490691 19.5498854,10.7309888 C19.8556986,11.2129086 19.9841136,11.7755896 20,12.3700455 C19.9841136,12.948614 19.8556986,13.4781961 19.5975446,13.9283409 L19.5975446,13.9283409 Z"/>
</svg>

<svg xmlns="http://www.w3.org/2000/svg" width="24" height="24"><path fill="#1CA1F2" fill-rule="evenodd" d="M15.76 10.426c.128-.177.24-.386.24-.594-.017-.193-.08-.418-.256-.563-.146-.176-.37-.24-.563-.24-.209 0-.45.064-.578.24l-3.871 3.857-1.334-1.35c-.176-.145-.353-.241-.578-.241-.225 0-.401.096-.594.24-.129.177-.241.37-.226.58 0 .208.065.433.241.578l1.912 1.927c.08.08.162.129.274.176a.702.702 0 00.32.065c.081 0 .21-.016.306-.065a.74.74 0 00.257-.176h.016c-.016 0-.016 0 0 0-.016 0-.016 0 0 0l4.418-4.434h.016zm3.838 3.502c-.273.466-.627.852-1.091 1.108a.231.231 0 01.031.097.104.104 0 000 .097.204.204 0 01.016.096.101.101 0 000 .096c-.016.852-.337 1.607-.867 2.153s-1.238.9-2.056.9c-.177 0-.353-.033-.515-.065-.16-.032-.352-.065-.498-.128-.256.513-.594.932-1.043 1.236a2.854 2.854 0 01-1.591.482 2.7 2.7 0 01-1.542-.482c-.45-.304-.85-.723-1.06-1.236a2.9 2.9 0 01-.497.128c-.193.032-.338.065-.531.065a2.868 2.868 0 01-2.056-.9 3.05 3.05 0 01-.835-2.153.101.101 0 010-.096v-.096a.104.104 0 010-.097.104.104 0 000-.097 3.207 3.207 0 01-1.06-1.108A2.98 2.98 0 014 12.37c-.016-.594.176-1.157.45-1.639.273-.482.707-.851 1.173-1.092l-.065-.257a1.372 1.372 0 01-.063-.273c-.017-.08-.017-.176-.033-.273a.792.792 0 010-.274 3.11 3.11 0 01.835-2.152 2.81 2.81 0 013.085-.706c.209-.498.61-.932 1.059-1.237A2.688 2.688 0 0111.984 4c.594 0 1.125.162 1.591.467.45.305.787.74 1.043 1.237.146-.065.338-.113.498-.144a2.784 2.784 0 012.57.85c.53.562.852 1.317.868 2.152-.016.097-.016.194-.016.274l-.047.273-.05.273a.804.804 0 01-.096.257c.514.24.9.61 1.205 1.092.306.482.434 1.045.45 1.639-.016.579-.144 1.108-.402 1.558z"/></svg>
